X:21
T:Montrose Lynes
Z:Jack Campin - http://www.campin.me.uk
S:Blaikie MS (NLS MS.1578) p8, Blaikie #20
M:C
L:1/8
V:1 midi program 1 74
V:2 midi program 1 46 bass middle = d transpose -24
Q:1/4=120
K:G
[V:1] D2|B,2D2   E2 G2|B2AG D2E2 |G2A2 B2AG|E4   D4  |
[V:2] z2|g4      g4   |G2g2 b2c'2|b2a2 g2B2|c4   B2G2|
%
[V:1]    B,A,B,D ED`EG|ABAG D2E2 |G2G2 A2B2|d6      ||
[V:2]    BABd    ed`eg|fgab c'4  |b2b2 a2g2|d6      ||
%
[V:1] g2|d2  B2  A2 G2|c2d2 e2f2 |dgdB ABAG|A4   G4  |
[V:2] z2|G2  g2  G2 g2|a2g2 c'4  |b2g2 d2g2|f2d2 g4  |
%
[V:1]    B,2 D2  E2 G2|A2B2 e4   |A2B2 A2G2|E4   D4  |
[V:2]    G4      g4   |d2g2 c4   |f2g2 a2b2|c'4  b2g2|
%
[V:1]    B,2 D2  E2 G2|A2B2 e2g2 |dedB ABAG|G6      |]
[V:2]    g2  b2  c'2b2|a2g2 c'4  |b2g2 d2d2|g2d2 G2 |]
W:Transcription (c) Jack Campin 2009, no mirroring or republication without permission

